!!!!SEGMENT: pl-kk--kk-i-389--001-007_kottritsch-franciszek--missa-no-1-agnus.krn
!!!cenid: 17xx:2458
!!!COM: Kottritsch, Franciszek
!!!COM-rismID: pe30040598
!!!CDT: ~1727-1787
!!!CNT:
!!!OPR: [Missa] No. 1.
!!!OTL: Agnus
!!!OMV: 007
!!!PDT:
!!!AGN: Sacred; Mass
!!!YEC: Copyright 2022 Narodowy Instytut Fryderyka Chopina (https://polishscores.org)
!!!YEM: License CC-BY-4.0 (https://creativecommons.org/licenses/by/4.0)
!!!SMS-siglum: PL-Kk
!!!SMS-shelfmark: Kk.I.389
!!!SMS-variant:
!!!SMS-altvar:
!!!SMS-shelfwork: 001-007 M
!!!NIFC-rismSourceID: 1001146182
!!!NIFC-rismChildID: 1001146200
!!!NIFC-islandoraID: pl-kk:6976
!!!URL-pdf-islandora: https://repozytorium.nifc.pl/islandora/object/pl-kk%3A6976/datastream/PDF/view
!!!URL-scan: https://polish.musicsources.pl/pl/lokalizacje/galeria/rekopisy/5999/1 @EN{Scan on Polish Music Sources Website} @PL{Skany w portalu Dziedzictwo Muzyki Polskiej w otwartym dostępie}
!!!IIIF:
!!!ONB-nifc: UWAGA: S – skan 1-3, A – 20-22, T – 39-41 , B – 58-60. Części Mszy: Rorate, Kyrie, Gloria, Graduale, Sanctus, Benedictus, Agnus, Dona.
!!!AIN: 1 alto 1 bass 1 soprn 1 tenor
!!!key: C
**kern	**text	**kern	**text	**kern	**text	**kern	**text
*part4	*part4	*part3	*part3	*part2	*part2	*part1	*part1
*staff4	*staff4	*staff3	*staff3	*staff2	*staff2	*staff1	*staff1
*I"Basso.	*	*I"Tenore.	*	*I"Alto.	*	*I"Soprano.	*
*I'[B]	*	*I'[T]	*	*I'[A]	*	*I'[S]	*
*ICvox	*	*ICvox	*	*ICvox	*	*ICvox	*
*Ibass	*	*Itenor	*	*Ialto	*	*Isoprn	*
*clefF4	*	*clefC4	*	*clefC3	*	*clefC1	*
*k[]	*	*k[]	*	*k[]	*	*k[]	*
*C:	*	*C:	*	*C:	*	*C:	*
*M2/2	*	*M2/2	*	*M2/2	*	*M2/2	*
*met(C|)	*	*met(C|)	*	*met(C|)	*	*met(C|)	*
=1-	=1-	=1-	=1-	=1-	=1-	=1-	=1-
*	*	*	*	*2\right	*	*2\right	*
!!LO:TX:t=P:problem: all\right	!	!	!	!	!	!	!
4C/	A-	2.G/	Ag-	2.e\	Ag-	2.cc\	Ag-
4E\	.	.	.	.	.	.	.
4G\	.	.	.	.	.	.	.
!LO:TX:t=P:problem:kreska pseudotaktowa	!	!LO:TX:t=P:problem:kreska pseudotaktowa	!	!LO:TX:t=P:problem:kreska pseudotaktowa	!	!LO:TX:t=P:problem:kreska pseudotaktowa	!
4c\	-gnus	4G/	-nus	4e\	-nus	4cc\	-nus
=2-	=2-	=2-	=2-	=2-	=2-	=2-	=2-
*2\right	*	*	*	*	*	*	*
2G\	De-	2G/	De-	2d\	De-	2b\	De-
4G\	-i	4G/	-i	4d\	-i	4b\	-i
!LO:TX:t=P:problem:kreska pseudotaktowa	!	!LO:TX:t=P:problem:kreska pseudotaktowa	!	!LO:TX:t=P:problem:kreska pseudotaktowa	!	!LO:TX:t=P:problem:kreska pseudotaktowa	!
4G\	qui	4G/	qui	4e\	qui	4cc\	qui
=3-	=3-	=3-	=3-	=3-	=3-	=3-	=3-
!LO:TX:t=P:problem:kreska pseudotaktowa	!	!	!	!	!	!	!
1G	tol-	4B\	tol-	4f\	tol-	4dd\	tol-
.	.	4A\	.	4e\	.	4cc\	.
.	.	4B\	.	4f\	.	4dd\	.
!	!	!LO:TX:t=P:problem:kreska pseudotaktowa	!	!LO:TX:t=P:problem:kreska pseudotaktowa	!	!LO:TX:t=P:problem:kreska pseudotaktowa	!
.	.	4G/	.	4d\	.	4b\	.
=4-	=4-	=4-	=4-	=4-	=4-	=4-	=4-
4C/	-lis	4G/	-lis	4e\	-lis	4cc\	-lis
4E/	pe-	4G/	pec-	4e\	pec-	4cc\	pec-
4D/	-ca-	4F/	-ca-	4f\	-ca-	4dd\	-ca-
!LO:TX:t=P:problem:kreska pseudotaktowa	!	!LO:TX:t=P:problem:kreska pseudotaktowa	!	!LO:TX:t=P:problem:kreska pseudotaktowa	!	!LO:TX:t=P:problem:kreska pseudotaktowa	!
4C/	-ta	4E/	-ta	4g\	-ta	4ee\	-ta
!	!	!	!	!LO:LB:g=original	!	!	!
=5-	=5-	=5-	=5-	=5-	=5-	=5-	=5-
*	*	*2\right	*	*	*	*	*
!LO:TX:t=P:problem:kreska pseudotaktowa	!	!	!	!	!	!	!
1G	mun-	2B\	mun-	2f\	mun-	2dd\	mun-
!	!	!LO:TX:t=P:problem:kreska pseudotaktowa	!	!LO:TX:t=P:problem:kreska pseudotaktowa	!	!LO:TX:t=P:problem:kreska pseudotaktowa	!
.	.	2c\	.	2e\	.	2cc\	.
=6-	=6-	=6-	=6-	=6-	=6-	=6-	=6-
2G\	-di,	2G/	-di	2d\	-di	2b\	-di
!LO:TX:t=P:problem:kreska pseudotaktowa	!	!LO:TX:t=P:problem:kreska pseudotaktowa	!	!LO:TX:t=P:problem:kreska pseudotaktowa	!	!LO:TX:t=P:problem:kreska pseudotaktowa	!
2r	.	2r	.	2r	.	2r	.
!LO:LB:g=original	!	!LO:LB:g=original	!	!	!	!LO:LB:g=original	!
=7-	=7-	=7-	=7-	=7-	=7-	=7-	=7-
4G\	mi-	2B\	mi-	2f\	mi-	2dd\	mi-
4A\	.	.	.	.	.	.	.
!	!	!LO:TX:t=P:problem:kreska pseudotaktowa	!	!LO:TX:t=P:problem:kreska pseudotaktowa	!	!LO:TX:t=P:problem:kreska pseudotaktowa	!
4B\	.	2G\	-se-	2d\	-se-	2b\	-se-
!LO:TX:t=P:problem:kreska pseudotaktowa	!	!	!	!	!	!	!
4G\	-se-	.	.	.	.	.	.
=8-	=8-	=8-	=8-	=8-	=8-	=8-	=8-
4c\	-re-	4G\	-re-	4g\	-re-	4ee\	-re-
4G\	.	4B\	.	4f\	.	4dd\	.
!	!	!LO:TX:t=P:problem:kreska pseudotaktowa	!	!LO:TX:t=P:problem:kreska pseudotaktowa	!	!LO:TX:t=P:problem:kreska pseudotaktowa	!
4E\	.	2G\	-re	2e\	-re	2cc\	-re
!LO:TX:t=P:problem:kreska pseudotaktowa	!	!	!	!	!	!	!
4C/	-re	.	.	.	.	.	.
=9-	=9-	=9-	=9-	=9-	=9-	=9-	=9-
2GG/	mi-	4d\	mi-	4d\	mi-	4b\	mi-
.	.	4c\	.	4e\	.	4cc\	.
!LO:TX:t=P:problem:kreska pseudotaktowa	!	!	!	!	!	!	!
2G\	-se-	4B\	-se-	4f\	.	4dd\	.
!	!	!LO:TX:t=P:problem:kreska pseudotaktowa	!	!LO:TX:t=P:problem:kreska pseudotaktowa	!	!LO:TX:t=P:problem:kreska pseudotaktowa	!
.	.	4c\	.	4e\	-se-	4cc\	-se-
=10-	=10-	=10-	=10-	=10-	=10-	=10-	=10-
2G\	-re-	4d\	-re-	4d\	-re-	4b\	-re-
.	.	4c\	.	4e\	.	4cc\	.
!LO:TX:t=P:problem:kreska pseudotaktowa	!	!	!	!	!	!	!
2G\	-re	4B\	-re	4f\	.	4dd\	.
!	!	!LO:TX:t=P:problem:kreska pseudotaktowa	!	!LO:TX:t=P:problem:kreska pseudotaktowa	!	!LO:TX:t=P:problem:kreska pseudotaktowa	!
.	.	4d\	.	4d\	-re	4b\	-re
=11-	=11-	=11-	=11-	=11-	=11-	=11-	=11-
!	!	!LO:TX:t=P:problem:kreska pseudotaktowa	!	!	!	!	!
4C/	mi-	1G	no-	4e\	mi-	4cc\	mi-
4D\	-se-	.	.	4f\	-se-	4b\	-se-
4E\	-re-	.	.	4g\	-re-	4ee\	-re-
!LO:TX:t=P:problem:kreska pseudotaktowa	!	!	!	!LO:TX:t=P:problem:kreska pseudotaktowa	!	!LO:TX:t=P:problem:kreska pseudotaktowa	!
4F\	-re	.	.	4f\	-re	4dd\	-re
!	!	!	!	!LO:LB:g=original	!	!	!
=12-	=12-	=12-	=12-	=12-	=12-	=12-	=12-
!	!	!LO:TX:t=P:problem:kreska pseudotaktowa	!	!	!	!	!
2G\	no-	1G	.	2e\	no-	2cc\	no-
!LO:TX:t=P:problem:kreska pseudotaktowa	!	!	!	!LO:TX:t=P:problem:kreska pseudotaktowa	!	!LO:TX:t=P:problem:kreska pseudotaktowa	!
2GG/	.	.	.	2d\	.	2b\	.
=13-	=13-	=13-	=13-	=13-	=13-	=13-	=13-
2C/	-bis	2G/	-bis	2e\	-bis,	2cc\	-bis,
!LO:TX:t=P:problem:kreska pseudotaktowa	!	!LO:TX:t=P:problem:kreska pseudotaktowa	!	!LO:TX:t=P:problem:kreska pseudotaktowa	!	!LO:TX:t=P:problem:kreska pseudotaktowa	!
2r	.	2r	.	2r	.	2r	.
!LO:LB:g=original	!	!	!	!	!	!LO:LB:g=original	!
=14-	=14-	=14-	=14-	=14-	=14-	=14-	=14-
4G\	mi-	2B\	mi-	2f\	mi-	2dd\	mi-
4A\	.	.	.	.	.	.	.
!	!	!LO:TX:t=P:problem:kreska pseudotaktowa	!	!LO:TX:t=P:problem:kreska pseudotaktowa	!	!LO:TX:t=P:problem:kreska pseudotaktowa	!
4B\	.	2G/	-se-	2d\	-se-	2b\	-se-
!LO:TX:t=P:problem:kreska pseudotaktowa	!	!	!	!	!	!	!
4G\	-se-	.	.	.	.	.	.
!	!	!LO:LB:g=original	!	!	!	!	!
=15-	=15-	=15-	=15-	=15-	=15-	=15-	=15-
4c\	-re-	4G/	-re-	4g\	-re-	4ee\	-re-
4G\	.	4B/	.	4f\	.	4dd\	.
!	!	!LO:TX:t=P:problem:kreska pseudotaktowa	!	!LO:TX:t=P:problem:kreska pseudotaktowa	!	!LO:TX:t=P:problem:kreska pseudotaktowa	!
4E\	.	2G/	-re	2e\	-re	2cc\	-re,
!LO:TX:t=P:problem:kreska pseudotaktowa	!	!	!	!	!	!	!
4C/	-re	.	.	.	.	.	.
=16-	=16-	=16-	=16-	=16-	=16-	=16-	=16-
2GG/	mi-	4B\	mi-	4f\	mi-	4dd\	mi-
.	.	4A\	.	4e\	.	4cc\	.
!LO:TX:t=P:problem:kreska pseudotaktowa	!	!	!	!	!	!	!
2G\	-se-	4G\	-se-	4d\	.	4b\	.
!	!	!LO:TX:t=P:problem:kreska pseudotaktowa	!	!LO:TX:t=P:problem:kreska pseudotaktowa	!	!LO:TX:t=P:problem:kreska pseudotaktowa	!
.	.	4A\	.	4f\	-se-	4cc\	-se-
=17-	=17-	=17-	=17-	=17-	=17-	=17-	=17-
2G\	-re-	4B\	-re-	4e\	-re-	4dd\	-re-
.	.	4A\	.	4f\	.	4cc\	.
!LO:TX:t=P:problem:kreska pseudotaktowa	!	!	!	!	!	!	!
2G\	-re	4G\	.	4g\	.	4b\	.
!	!	!LO:TX:t=P:problem:kreska pseudotaktowa	!	!LO:TX:t=P:problem:kreska pseudotaktowa	!	!LO:TX:t=P:problem:kreska pseudotaktowa	!
.	.	4B\	-re	4f\	-re	4dd\	-re
=18-	=18-	=18-	=18-	=18-	=18-	=18-	=18-
!	!	!LO:TX:t=P:problem:kreska pseudotaktowa	!	!	!	!	!
4C/	mi-	1G	no-	2e\	no-	4cc\	mi-
4D/	-se-	.	.	.	.	4b\	-se-
!	!	!	!	!LO:TX:t=P:problem:kreska pseudotaktowa	!	!	!
4E\	-re-	.	.	2d\	.	4ee\	-re-
!LO:TX:t=P:problem:kreska pseudotaktowa	!	!	!	!	!	!LO:TX:t=P:problem:kreska pseudotaktowa	!
4F\	-re	.	.	.	.	4dd\	-re
=19-	=19-	=19-	=19-	=19-	=19-	=19-	=19-
!	!	!LO:TX:t=P:problem:kreska pseudotaktowa	!	!	!	!	!
2G\	no-	1G	.	1e	-bis.	2cc\	no-
!LO:TX:t=P:problem:kreska pseudotaktowa	!	!	!	!	!	!LO:TX:t=P:problem:kreska pseudotaktowa	!
2GG/	.	.	.	.	.	2b\	.
=20-	=20-	=20-	=20-	=20-	=20-	=20-	=20-
!	!	!LO:TX:t=P:problem:kreska pseudotaktowa	!	!	!	!	!
2C/	-bis.	1G	-bis,	1ryy	.	2.cc\	-bis.
2r	.	.	.	.	.	.	.
!	!	!	!	!	!	!LO:TX:t=P:problem:kreska pseudotaktowa	!
.	.	.	.	.	.	4r	.
!LO:LB:g=original	!	!LO:LB:g=original	!	!LO:LB:g=original	!	!LO:LB:g=original	!
=21||	=21||	=21||	=21||	=21||	=21||	=21||	=21||
*clefF4	*	*clefC4	*	*clefC3	*	*clefC1	*
*M3/2	*	*M3/2	*	*M3/2	*	*M3/2	*
2C/	A-	1G	Ag-	1g	Ag-	1ee	Ag-
2E\	.	.	.	.	.	.	.
!LO:TX:t=P:problem:kreska pseudotaktowa	!	!LO:TX:t=P:problem:kreska pseudotaktowa	!	!LO:TX:t=P:problem:kreska pseudotaktowa	!	!LO:TX:t=P:problem:kreska pseudotaktowa	!
2G\	-gnus	2B\	-nus	2f\	-nus	2dd\	-nus
=22-	=22-	=22-	=22-	=22-	=22-	=22-	=22-
4G\	De-	2G/	De-	2f\	De-	2dd\	De-
8A\L	.	.	.	.	.	.	.
8B\J	.	.	.	.	.	.	.
2c\	-i	2G/	-i	2e\	-i	2cc\	-i
4r	.	4r	.	4r	.	4r	.
!	!	!LO:TX:t=P:problem:kreska pseudotaktowa	!	!LO:TX:t=P:problem:kreska pseudotaktowa	!	!LO:TX:t=P:problem:kreska pseudotaktowa	!
8C/L	qui	4G/	qui	4e\	qui	4cc\	qui
!LO:TX:t=P:problem:kreska pseudotaktowa	!	!	!	!	!	!	!
8E/J	.	.	.	.	.	.	.
=23-	=23-	=23-	=23-	=23-	=23-	=23-	=23-
2G\	tol-	2G/	tol-	2e\	tol-	2cc\	tol-
2G\	-lis	2G/	-lis	4d\	-lis	4b\	-lis
.	.	.	.	4e\	.	4cc\	.
!LO:TX:t=P:problem:kreska pseudotaktowa	!	!LO:TX:t=P:problem:kreska pseudotaktowa	!	!LO:TX:t=P:problem:kreska pseudotaktowa	!	!LO:TX:t=P:problem:kreska pseudotaktowa	!
2G\	pec-	2B\	pec-	2f\	pec-	2dd\	pec-
=24-	=24-	=24-	=24-	=24-	=24-	=24-	=24-
2G\	-ca-	2B\	-ca-	2f\	-ca-	2dd\	-ca-
2C/	-ta	2G/	-ta	2e\	-ta	2cc\	-ta
!LO:TX:t=P:problem:kreska pseudotaktowa	!	!LO:TX:t=P:problem:kreska pseudotaktowa	!	!LO:TX:t=P:problem:kreska pseudotaktowa	!	!LO:TX:t=P:problem:kreska pseudotaktowa	!
2C/	pec-	2c\	pec-	2g\	pec-	2ee\	pec-
!	!	!	!	!LO:LB:g=original	!	!	!
=25-	=25-	=25-	=25-	=25-	=25-	=25-	=25-
2C/	-ca-	1G	-ca-	2g\	-ca-	2ee\	-ca-
2BB/	.	.	.	2f\	.	2dd\	.
!LO:TX:t=P:problem:kreska pseudotaktowa	!	!LO:TX:t=P:problem:kreska pseudotaktowa	!	!LO:TX:t=P:problem:kreska pseudotaktowa	!	!LO:TX:t=P:problem:kreska pseudotaktowa	!
2C/	-ta	2G/	-ta	2e\	-ta	2cc\	-ta
!	!	!	!	!	!	!LO:LB:g=original	!
=26-	=26-	=26-	=26-	=26-	=26-	=26-	=26-
2G\	mun-	2G/	mun-	2e\	mun-	2cc\	mun-
!	!	!LO:TX:t=P:problem:kreska pseudotaktowa	!	!	!	!	!
2GG/	-di,	2G/	-di	2d\	-di	2b\	-di
!LO:LB:g=original	!	!LO:LB:g=original	!	!	!	!	!
4r	.	4r	.	4r	.	4r	.
!	!	!LO:TX:t=P:problem:kreska pseudotaktowa	!	!LO:TX:t=P:problem:kreska pseudotaktowa	!	!LO:TX:t=P:problem:kreska pseudotaktowa	!
8C/L	qui	4G/	qui	4e\	qui	4cc\	qui
!LO:TX:t=P:problem:kreska pseudotaktowa	!	!	!	!	!	!	!
8E/J	.	.	.	.	.	.	.
=27-	=27-	=27-	=27-	=27-	=27-	=27-	=27-
2G\	tol-	2G/	tol-	2e\	tol-	2cc\	tol-
2G\	-lis	2G/	-lis	4d\	-lis	4b\	-lis
.	.	.	.	4e\	.	4cc\	.
!LO:TX:t=P:problem:kreska pseudotaktowa	!	!LO:TX:t=P:problem:kreska pseudotaktowa	!	!LO:TX:t=P:problem:kreska pseudotaktowa	!	!LO:TX:t=P:problem:kreska pseudotaktowa	!
2G\	pec-	2B\	pec-	2f\	pec-	2dd\	pec-
=28-	=28-	=28-	=28-	=28-	=28-	=28-	=28-
2G\	-ca-	2B\	-ca-	2f\	-ca-	2dd\	-ca-
2C/	-ta	2G/	-ta	2e\	-ta	2cc\	-ta
!LO:TX:t=P:problem:kreska pseudotaktowa	!	!LO:TX:t=P:problem:kreska pseudotaktowa	!	!LO:TX:t=P:problem:kreska pseudotaktowa	!	!LO:TX:t=P:problem:kreska pseudotaktowa	!
2C/	pec-	2c\	pec-	2g\	pec-	2ee\	pec-
=29-	=29-	=29-	=29-	=29-	=29-	=29-	=29-
2C/	-ca-	1G	-ca-	2g\	-ca-	2ee\	-ca-
2BB/	.	.	.	2f\	.	2dd\	.
!LO:TX:t=P:problem:kreska pseudotaktowa	!	!LO:TX:t=P:problem:kreska pseudotaktowa	!	!LO:TX:t=P:problem:kreska pseudotaktowa	!	!LO:TX:t=P:problem:kreska pseudotaktowa	!
2C/	-ta	2G/	-ta	2e\	-ta	2cc\	-ta
=30-	=30-	=30-	=30-	=30-	=30-	=30-	=30-
1F	mun-	1B	mun-	1f	mun-	1dd	mun-
!LO:TX:t=P:problem:kreska pseudotaktowa	!	!LO:TX:t=P:problem:kreska pseudotaktowa	!	!LO:TX:t=P:problem:kreska pseudotaktowa	!	!LO:TX:t=P:problem:kreska pseudotaktowa	!
2F#X\	.	2c\	.	2e\	.	2cc\	.
=31-	=31-	=31-	=31-	=31-	=31-	=31-	=31-
1.G	di	1G;	-di	1.d	-di.	1.b	-di.
.	.	2ryy	.	.	.	.	.
==	==	==	==	==	==	==	==
*-	*-	*-	*-	*-	*-	*-	*-
!!!system-decoration: [(s1,s2,s3,s4)]
!!!ENC: Filip Voros
!!!END: 2023-11-04
!!!EED: Jan Barakat
!!!EEV: 2023-11-26
